!!!COM: Music21
!!!OTL: jig_Benedicts-Fancy
!!!OMV: jig_Benedicts-Fancy
**kern
*clefG2
*k[f#c#]
*D:
*M6/8
=1
8gL
8g
8gJ
8ddL
8b
8aJ
=
8gL
8a
8bJ
8aL
8f#
8dJ
=
8gL
8g
8gJ
8ddL
8b
8aJ
=
8bL
8a
8aJ
4.a
=
8gL
8g
8gJ
8ddL
8b
8aJ
=
8gL
8a
8bJ
8aL
8f#
8dJ
!!linebreak:original
=
8gL
8g
8gJ
8ddL
8b
8gJ
=
8aL
8g
8gJ
4.g
=||
*M6/8
8gL
8g
8gJ
8ddL
8b
8aJ
=
8gL
8a
8bJ
8aL
8f#
8dJ
=
8gL
8g
8gJ
8ddL
8b
8aJ
=
8bL
8a
8aJ
4.a
!!linebreak:original
=
8gL
8g
8gJ
8ddL
8b
8aJ
=
8gL
8a
8bJ
8aL
8f#
8dJ
=
8gL
8g
8gJ
8ddL
8b
8gJ
=
8aL
8g
8gJ
4.g
=||
8ddL
8gg
8ggJ
8ff#L
8ee
8ddJ
=
8ddL
8gg
8ggJ
4.ff#
=
8ddL
8gg
8ggJ
8ddL
8b
8aJ
!!linebreak:original
=
8bL
8a
8aJ
4.a
=
8ddL
8gg
8ggJ
8ff#L
8ee
8ddJ
=
8ddL
8gg
8ggJ
4.ee
=
8ddL
8gg
8ggJ
8ddL
8b
8gJ
=
8aL
8g
8gJ
4.g
=||
*M6/8
8gL
8g
8gJ
8ddL
8b
8aJ
!!linebreak:original
=
8gL
8a
8bJ
8aL
8f#
8dJ
=
8gL
8g
8gJ
8ddL
8b
8aJ
=
8bL
8a
8aJ
4.a
=
8gL
8g
8gJ
8ddL
8b
8aJ
=
8gL
8a
8bJ
8aL
8f#
8dJ
=
8gL
8g
8gJ
8ddL
8b
8gJ
=
8aL
8g
8gJ
4.g
!!linebreak:original
=||
*M6/8
8gL
8g
8gJ
8ddL
8b
8aJ
=
8gL
8a
8bJ
8aL
8f#
8dJ
=
8gL
8g
8gJ
8ddL
8b
8aJ
=
8bL
8a
8aJ
4.a
=
8gL
8g
8gJ
8ddL
8b
8aJ
=
8gL
8a
8bJ
8aL
8f#
8dJ
!!linebreak:original
=
8gL
8g
8gJ
8ddL
8b
8gJ
=
8aL
8g
8gJ
4.g
=||
8ddL
8gg
8ggJ
8ff#L
8ee
8ddJ
=
8ddL
8gg
8ggJ
4.ff#
=
8ddL
8gg
8ggJ
8ddL
8b
8aJ
=
8bL
8a
8aJ
4.a
=
8ddL
8gg
8ggJ
8ff#L
8ee
8ddJ
!!linebreak:original
=
8ddL
8gg
8ggJ
4.ee
=
8ddL
8gg
8ggJ
8ddL
8b
8gJ
=
8aL
8g
8gJ
4.g
=||
*-
